src/symbolic/actions/view-coverflow-symbolic.svg

<svg xmlns="http://www.w3.org/2000/svg" width="16" height="16" enable-background="new"><defs><filter id="a" color-interpolation-filters="sRGB"><feBlend mode="darken" in2="BackgroundImage"/></filter></defs><g color="#5d656b" fill="#5d656b"><path style="marker:none" overflow="visible" enable-background="accumulate" d="M1 3h1v10H1zM3 4h1v8H3zM12 4h1v8h-1zM14 3h1v10h-1zM5 5v6h6V5z"/></g></svg>

<svg xmlns="http://www.w3.org/2000/svg" width="16" height="16" version="1.1">
 <path style="fill:#555555" d="M 1,3 H 2 V 13 H 1 Z"/>
 <path style="fill:#555555" d="M 3,4 H 4 V 12 H 3 Z"/>
 <path style="fill:#555555" d="M 12,4 H 13 V 12 H 12 Z"/>
 <path style="fill:#555555" d="M 14,3 H 15 V 13 H 14 Z"/>
 <path style="fill:#555555" d="M 5,5 V 11 H 11 V 5 Z"/>
</svg>
